src/actions/24/mail-mark-unread.svg

<svg xmlns="http://www.w3.org/2000/svg" viewBox="0 0 24 24">
  <defs id="defs3051">
    <style type="text/css" id="current-color-scheme">
      .ColorScheme-Text {
        color:#2e3440;
      }
      </style>
  </defs>
 <path style="fill:currentColor;fill-opacity:1;stroke:none" 
     d="M 2 4 L 2 5 L 2 19 L 2 19.414062 L 2 20 L 3 20 L 22 20 L 22 19.414062 L 22 19 L 22 18 L 22 4 L 21.951172 4 L 21 4 L 3.4628906 4 L 3 4 L 2 4 z M 3 5 L 3.0488281 5 L 9.0234375 10.976562 L 3 17 L 3 5 z M 4.4628906 5 L 19.537109 5 L 12 12.537109 L 4.4628906 5 z M 20.951172 5 L 21 5 L 21 17 L 14.976562 10.976562 L 20.951172 5 z M 9.7304688 11.683594 L 12 13.951172 L 14.269531 11.683594 L 20.537109 17.951172 L 21 18.414062 L 21 19 L 3 19 L 3 18.414062 L 3.4628906 17.951172 L 9.7304688 11.683594 z "
     class="ColorScheme-Text"
     />
</svg>

<svg viewBox="0 0 24 24" xmlns="http://www.w3.org/2000/svg">
 <defs>
  <style type="text/css">.ColorScheme-Text {
        color:#2e3440;
      }</style>
 </defs>
 <path class="ColorScheme-Text" d="m2 4v1 14 0.41406 0.58594h1 19v-0.58594-0.41406-1-14h-0.048828-0.95117-17.537-0.46289-1zm1 1h0.048828l5.9746 5.9766-6.0234 6.0234v-12zm1.4629 0h15.074l-7.5371 7.5371-7.5371-7.5371zm16.488 0h0.048828v12l-6.0234-6.0234 5.9746-5.9766zm-11.221 6.6836 2.2695 2.2676 2.2695-2.2676 6.7305 6.7305v0.58594h-18v-0.58594l6.7305-6.7305z" fill="currentColor"/>
</svg>
